public/youtube.svg

<svg xmlns="http://www.w3.org/2000/svg"  viewBox="0 0 50 50" width="50px" height="50px"><path d="M 24.402344 9 C 17.800781 9 11.601563 9.5 8.300781 10.199219 C 6.101563 10.699219 4.199219 12.199219 3.800781 14.5 C 3.402344 16.898438 3 20.5 3 25 C 3 29.5 3.398438 33 3.898438 35.5 C 4.300781 37.699219 6.199219 39.300781 8.398438 39.800781 C 11.902344 40.5 17.898438 41 24.5 41 C 31.101563 41 37.097656 40.5 40.597656 39.800781 C 42.800781 39.300781 44.699219 37.800781 45.097656 35.5 C 45.5 33 46 29.402344 46.097656 24.902344 C 46.097656 20.402344 45.597656 16.800781 45.097656 14.300781 C 44.699219 12.101563 42.800781 10.5 40.597656 10 C 37.097656 9.5 31 9 24.402344 9 Z M 24.402344 11 C 31.601563 11 37.398438 11.597656 40.199219 12.097656 C 41.699219 12.5 42.898438 13.5 43.097656 14.800781 C 43.699219 18 44.097656 21.402344 44.097656 24.902344 C 44 29.199219 43.5 32.699219 43.097656 35.199219 C 42.800781 37.097656 40.800781 37.699219 40.199219 37.902344 C 36.597656 38.601563 30.597656 39.097656 24.597656 39.097656 C 18.597656 39.097656 12.5 38.699219 9 37.902344 C 7.5 37.5 6.300781 36.5 6.101563 35.199219 C 5.300781 32.398438 5 28.699219 5 25 C 5 20.398438 5.402344 17 5.800781 14.902344 C 6.101563 13 8.199219 12.398438 8.699219 12.199219 C 12 11.5 18.101563 11 24.402344 11 Z M 19 17 L 19 33 L 33 25 Z M 21 20.402344 L 29 25 L 21 29.597656 Z"/></svg>

<svg xmlns="http://www.w3.org/2000/svg" xmlns:xlink="http://www.w3.org/1999/xlink" viewBox="0,0,256,256" width="50px" height="50px" fill-rule="nonzero"><g fill="#d7d7d7" fill-rule="nonzero" stroke="none" stroke-width="1" stroke-linecap="butt" stroke-linejoin="miter" stroke-miterlimit="10" stroke-dasharray="" stroke-dashoffset="0" font-family="none" font-weight="none" font-size="none" text-anchor="none" style="mix-blend-mode: normal"><g transform="scale(5.12,5.12)"><path d="M24.40234,9c-6.60156,0 -12.80078,0.5 -16.10156,1.19922c-2.19922,0.5 -4.10156,2 -4.5,4.30078c-0.39844,2.39844 -0.80078,6 -0.80078,10.5c0,4.5 0.39844,8 0.89844,10.5c0.40234,2.19922 2.30078,3.80078 4.5,4.30078c3.50391,0.69922 9.5,1.19922 16.10156,1.19922c6.60156,0 12.59766,-0.5 16.09766,-1.19922c2.20313,-0.5 4.10156,-2 4.5,-4.30078c0.40234,-2.5 0.90234,-6.09766 1,-10.59766c0,-4.5 -0.5,-8.10156 -1,-10.60156c-0.39844,-2.19922 -2.29687,-3.80078 -4.5,-4.30078c-3.5,-0.5 -9.59766,-1 -16.19531,-1zM24.40234,11c7.19922,0 12.99609,0.59766 15.79688,1.09766c1.5,0.40234 2.69922,1.40234 2.89844,2.70313c0.60156,3.19922 1,6.60156 1,10.10156c-0.09766,4.29688 -0.59766,7.79688 -1,10.29688c-0.29687,1.89844 -2.29687,2.5 -2.89844,2.70313c-3.60156,0.69922 -9.60156,1.19531 -15.60156,1.19531c-6,0 -12.09766,-0.39844 -15.59766,-1.19531c-1.5,-0.40234 -2.69922,-1.40234 -2.89844,-2.70312c-0.80078,-2.80078 -1.10156,-6.5 -1.10156,-10.19922c0,-4.60156 0.40234,-8 0.80078,-10.09766c0.30078,-1.90234 2.39844,-2.50391 2.89844,-2.70312c3.30078,-0.69922 9.40234,-1.19922 15.70313,-1.19922zM19,17v16l14,-8zM21,20.40234l8,4.59766l-8,4.59766z"></path></g></g></svg>
